X:1
T:Ginevra Weasley
T:Sylvi
M:3/4
L:1/8
K:A minor
EA Bc BA | ed ef ed | cd ed cA | Bc BA ^GE | EA Bc BA | ed ef ed | ecA ecA | BA ^GB A2 :|
fed fed | cde3A | ^GAB2d2 | c2B2c2 | fed fed | cde3c | Bc dB ^GF | E6 |
F^G AB cF | EF AB cA | e2d2B2 | ABc ABc | df ed   cf | e2c2A2 | B2c2B^G |  [1 A6 :|] [2 A2A2z2 :|%
%
